X: 0843
M: 6/8
L: 1/8
K: F
|: f |\
faf gec | dfd cAF | faf gec | (d3 f2)f |\
faf gec | dfd cAF | FAc cAc | (d3 f2) :|

